X:1
T:Title
%%score { 1 | 2 }
L:1/8
M:6/8
K:Db
V:1 treble nm="Grand Piano"
V:2 bass 
V:1
 z3 z2[Q:1/4=78] [DF]/[EG]/ | [FA][GB][FA] FED | F3 F2 F/[EG]/ | [FA][GB][FA] [DF]2 [Fd] | %4
 c3- c2 E/F/ | GFG E2 F/[EG]/ |[M:5/8] [FA][_F=G][=FA] [DF]2 |[M:1/8] [FA]/[_FB]/ | %8
[M:3/4] [Ec][Fd] c B2 B |[M:5/8] [CA]-[CA]- [CA]3 |[M:1/8] [GB]/[Gc]/ | %11
[M:3/4] [Fd]3 [FA]2 [DF]/[FA]/ |[M:5/8] [GB]3 [FA]2 |[M:1/8] [FA]/[FA]/ | %14
[M:3/4] [FA][GB] [FA]F ED | [DF]3 [CE]2 [CF]/[CE]/ |[M:5/8] DEF [FA]2 |[M:1/8] [FA]/[FA]/ | %18
[M:3/4] B=A B d2 c/B/ |[M:13/16] AFBA3/2dd |[M:15/16] e3/2- e3 [Fd]3 |] %21
V:2
 z3 z2 [D,A,]/[D,A,]/ | [D,D][D,D][D,D] [D,A,D][D,G,D][D,F,] | [D,A,D]3 [D,A,D]2 [D,A,D]/[D,A,]/ | %3
 [D,D][D,D][D,D] [D,A,]2 [D,D] | [A,EG]3- [A,EG]2 [A,C]/[A,D]/ | %5
 [A,CE][K:bass][A,_C=D][A,=CE] [A,C]2 [D,A,_D]/[D,A,]/ |[M:5/8] [D,D][D,D][D,D] [D,A,]2 | %7
[M:1/8] [D,A,]/[D,A,]/ |[M:3/4] [E,A,][E,A,] [E,A,E] [E,=G,D]2 [E,G,D] | %9
[M:5/8] [A,,A,]-[A,,A,]- [A,,A,]3 |[M:1/8] [A,,A,]/[A,,A,]/ |[M:3/4] [D,A,]3 [D,D]2 [D,A,]/[D,D]/ | %12
[M:5/8] [G,D]3 [D,D]2 |[M:1/8] [D,D]/[D,D]/ |[M:3/4] [D,D][D,D] [D,D][D,A,D] [D,G,D][D,F,] | %15
 [A,,A,]3 [A,,A,]2 [A,,A,]/[A,,A,]/ |[M:5/8] [D,F,][D,G,D][D,A,D] [D,D]2 |[M:1/8] [D,D]/[D,D]/ | %18
[M:3/4][K:treble] [G,DG][G,CG] [G,DG] [G,B,G]2 [G,CG]/[G,DG]/ | %19
[M:13/16] [A,DF][A,D][A,DG][A,DF]3/2[A,DF][A,DF] |[M:15/16] [A,CG]3/2- [A,CG]3[K:bass] [D,D]3 |] %21

